images/opyt-raboty.svg

<svg width="60" height="80" viewBox="0 0 60 80" fill="none" xmlns="http://www.w3.org/2000/svg">
<path d="M15.6624 51.0984C15.9719 51.2606 16.2786 51.343 16.5738 51.3428C17.0022 51.3428 17.384 51.1698 17.649 50.8555C17.8619 50.6026 18.0903 50.149 17.9654 49.4255L17.6161 47.3945L19.0969 45.9558C19.6119 45.4564 19.8027 44.8494 19.622 44.2907C19.4407 43.7318 18.9294 43.3523 18.2185 43.2496L16.1687 42.9527L15.2523 41.1029C14.9346 40.4612 14.4159 40.0931 13.8287 40.0931C13.2409 40.0931 12.7218 40.4614 12.4051 41.1029L11.4891 42.9529L9.43975 43.2496C8.72839 43.3523 8.21663 43.732 8.03537 44.2912C7.85411 44.8501 8.04545 45.4568 8.55998 45.9555L10.0412 47.3947L9.69244 49.4241C9.56701 50.1481 9.79453 50.6019 10.0078 50.8553C10.4546 51.3868 11.2355 51.4961 11.994 51.0984L13.8287 50.1375L15.6624 51.0984ZM11.6388 49.1681L12.0563 46.7383L10.2889 45.0211L12.7323 44.6672L13.8287 42.4529L14.9254 44.6674L17.3685 45.0211L15.6011 46.7385L16.019 49.1685L13.8287 48.0209L11.6388 49.1681Z" fill="#C29F5B"/>
<path d="M8.83639 38.2648L8.5416 36.4677L9.78347 35.2016C10.2545 34.7207 10.4225 34.1396 10.2449 33.6072C10.0686 33.0806 9.5949 32.7219 8.94533 32.6237L7.26495 32.3678L6.50556 30.7577C6.08946 29.8761 5.42432 29.7809 5.15748 29.7809C4.89015 29.7809 4.22454 29.8761 3.80986 30.7577L3.04998 32.3678L1.36957 32.6235C0.719101 32.7222 0.244881 33.081 0.0691054 33.6081C-0.108499 34.1407 0.0599721 34.7216 0.53142 35.2018L1.77287 36.4677L1.47808 38.2639C1.36361 38.9574 1.58383 39.3907 1.7889 39.6319C2.21779 40.1379 2.96074 40.2398 3.66426 39.8535L5.15701 39.0322L6.65016 39.8535C6.93946 40.0125 7.22876 40.0931 7.51029 40.0931C7.91177 40.0931 8.27198 39.9297 8.52421 39.6328C8.72881 39.392 8.94945 38.9592 8.83639 38.2648ZM6.53757 35.8332L6.86531 37.832L5.15701 36.8923L3.44958 37.8302L3.7769 35.8332L2.34365 34.3719L4.31979 34.0711L5.15748 32.2951L5.99515 34.0711L7.96989 34.373L6.53757 35.8332Z" fill="#C29F5B"/>
<path d="M50.5606 43.2496L48.5108 42.9529L47.5953 41.1034C47.2781 40.4614 46.759 40.0931 46.1712 40.0931C45.584 40.0931 45.0653 40.4612 44.7476 41.1027L43.8312 42.9527L41.7814 43.2496C41.0705 43.3523 40.5592 43.7318 40.3779 44.2907C40.1972 44.8494 40.388 45.4564 40.9026 45.9555L42.3838 47.3945L42.0346 49.4253C41.9096 50.149 42.138 50.6026 42.3509 50.8557C42.7985 51.3858 43.5786 51.4961 44.338 51.0984L46.1712 50.1375L48.0059 51.0984C48.3153 51.2606 48.622 51.3428 48.9173 51.3428C49.3458 51.3428 49.7275 51.1698 49.9921 50.8553C50.2054 50.6022 50.4329 50.1483 50.3075 49.4255L49.9587 47.3947L51.4395 45.956C51.9545 45.4568 52.1458 44.8501 51.9645 44.2912C51.7833 43.732 51.2715 43.3523 50.5606 43.2496ZM47.9437 46.7383L48.3611 49.1681L46.1712 48.0209L43.9809 49.1685L44.3989 46.7385L42.6314 45.0211L45.0745 44.6674L46.1712 42.4529L47.2676 44.6672L49.711 45.0211L47.9437 46.7383Z" fill="#C29F5B"/>
<path d="M59.931 33.6081C59.7552 33.081 59.281 32.7222 58.631 32.6237L56.9501 32.3678L56.1907 30.7589C55.7756 29.8761 55.11 29.7809 54.8427 29.7809C54.5758 29.7809 53.9107 29.8761 53.4946 30.758L52.7352 32.3678L51.0552 32.6235C50.4052 32.7219 49.9315 33.0806 49.7552 33.6072C49.5776 34.1396 49.7456 34.7207 50.2171 35.2018L51.4585 36.4677L51.1637 38.266C51.0507 38.9592 51.2713 39.392 51.4759 39.6331C51.9057 40.1375 52.6477 40.2388 53.35 39.8535L54.8431 39.0322L56.3363 39.8537C56.6256 40.0125 56.9149 40.0931 57.1964 40.0931C57.5988 40.0931 57.959 39.9294 58.2112 39.6319C58.4163 39.3907 58.6365 38.9574 58.522 38.2648L58.2272 36.4677L59.4682 35.2022C59.9402 34.7216 60.1086 34.1407 59.931 33.6081ZM56.2232 35.8332L56.551 37.8318L54.8431 36.8923L53.1348 37.8302L53.4625 35.8332L52.0293 34.3719L54.005 34.0711L54.8427 32.2951L55.6803 34.0711L57.6555 34.373L56.2232 35.8332Z" fill="#C29F5B"/>
<path d="M30 34.937C34.4017 34.937 37.9685 31.3693 37.9685 26.9676C37.9685 22.5666 34.4017 19 30 19C25.6001 19 22.0315 22.5666 22.0315 26.9676C22.0315 31.3693 25.6001 34.937 30 34.937ZM30 20.8749C33.3599 20.8749 36.0936 23.6082 36.0936 26.9676C36.0936 30.3282 33.3599 33.0621 30 33.0621C26.6401 33.0621 23.9064 30.3282 23.9064 26.9676C23.9064 23.6082 26.6401 20.8749 30 20.8749Z" fill="#C29F5B"/>
<path d="M35.2378 54.7551L37.7015 52.2414C38.3419 51.5891 38.5794 50.8262 38.3538 50.1483C38.1308 49.4805 37.5005 49.0211 36.6248 48.8879L33.2526 48.3756L31.7374 45.1613C31.1758 43.9716 30.3353 43.843 30.0003 43.843C29.6643 43.843 28.8234 43.9716 28.264 45.1618L26.748 48.3754L23.3753 48.8879C22.4991 49.0211 21.8683 49.4809 21.6459 50.1492C21.4197 50.8274 21.6578 51.59 22.2973 52.2407L24.7623 54.7553L24.1795 58.3139C24.0216 59.2713 24.3036 59.8436 24.5677 60.1552C25.1079 60.7919 26.0522 60.8995 26.9933 60.382L30.0003 58.7286L33.0063 60.382C33.4109 60.6047 33.8074 60.7177 34.1837 60.7175C34.6808 60.7175 35.1238 60.5179 35.4315 60.1552C35.696 59.8436 35.9785 59.2715 35.821 58.3152L35.2378 54.7551ZM33.9708 58.6189C33.9809 58.6803 33.9864 58.7339 33.9891 58.7796C33.9649 58.7684 33.9387 58.7549 33.9099 58.7391L30.0003 56.5891L26.0902 58.7389C26.0614 58.7547 26.0353 58.7679 26.0114 58.7794C26.0137 58.7334 26.0197 58.6798 26.0298 58.6183L26.7663 54.1209L23.6353 50.9274C23.578 50.8686 23.5355 50.8168 23.5052 50.774C23.546 50.7624 23.5964 50.7509 23.6573 50.7418L28.0178 50.0792L29.96 45.9606C29.9742 45.9308 29.9874 45.9041 30.0008 45.88C30.014 45.9043 30.0278 45.9313 30.0419 45.9615L31.9828 50.0789L36.3428 50.7418C36.4037 50.7509 36.4541 50.7624 36.4944 50.774C36.4637 50.8171 36.4211 50.869 36.363 50.9283L33.2338 54.1211L33.9708 58.6189Z" fill="#C29F5B"/>
<path d="M17.2334 40.8782C17.7369 39.9714 18.3237 39.1683 19.0008 38.473C20.4843 36.9491 22.4467 35.9057 24.8591 35.3465C24.1944 34.9371 23.576 34.4596 23.0281 33.9089C19.8064 34.9563 17.5996 36.8319 16.0995 39.1415C16.4282 39.4512 16.7134 39.8277 16.9327 40.271L17.2334 40.8782Z" fill="#C29F5B"/>
<path d="M15.5736 53.6107C15.2673 53.6107 15.0234 53.3686 15.0183 53.1594C15.0156 53.0578 15.0165 52.9611 15.0142 52.8605C14.9401 52.8268 14.8659 52.7977 14.7922 52.7593L13.8282 52.2542L13.132 52.619C13.1351 52.8167 13.1388 53.014 13.1439 53.2092C13.1768 54.4679 14.2873 55.4857 15.5736 55.4857H22.7433L22.7589 55.3895L21.0149 53.6107H15.5736Z" fill="#C29F5B"/>
<path d="M35.0357 35.4106C37.3881 35.9967 39.3202 37.0496 40.8056 38.5645C41.5151 39.2884 42.134 40.13 42.6646 41.0835L43.0674 40.2705C43.2546 39.8922 43.4922 39.5649 43.7608 39.2827C42.2457 36.9745 40.0448 35.0849 36.8763 33.9987C36.3229 34.5402 35.7036 35.0108 35.0357 35.4106Z" fill="#C29F5B"/>
<path d="M45.2083 52.7591C45.1378 52.7962 45.0641 52.8188 44.9928 52.8511C44.9913 52.9591 44.9932 53.0635 44.9909 53.1724C44.9868 53.3709 44.7424 53.6107 44.4448 53.6107H38.9848L37.2416 55.3893L37.2572 55.4857H44.4448C45.7292 55.4857 46.8406 54.4679 46.8654 53.2092C46.8691 53.0147 46.8713 52.8183 46.8727 52.6215L46.1719 52.2542L45.2083 52.7591Z" fill="#C29F5B"/>
</svg>

<svg width="60" height="80" fill="none" xmlns="http://www.w3.org/2000/svg"><path d="M15.662 51.098c.31.163.617.245.912.245.428 0 .81-.173 1.075-.488.213-.252.441-.706.316-1.43l-.349-2.03 1.48-1.44c.516-.499.707-1.106.526-1.664-.181-.56-.693-.939-1.404-1.041l-2.05-.297-.916-1.85c-.317-.642-.836-1.01-1.423-1.01-.588 0-1.107.368-1.424 1.01l-.916 1.85-2.05.297c-.71.102-1.222.482-1.404 1.041-.18.56.01 1.166.525 1.665l1.481 1.439-.349 2.03c-.125.723.103 1.177.316 1.43.447.532 1.228.641 1.986.243l1.835-.96 1.833.96zm-4.023-1.93l.417-2.43-1.767-1.717 2.443-.354 1.097-2.214 1.096 2.214 2.444.354L15.6 46.74l.418 2.43-2.19-1.148-2.19 1.147zM8.836 38.265l-.294-1.797 1.241-1.266c.472-.481.64-1.062.462-1.595-.176-.526-.65-.885-1.3-.983l-1.68-.256-.76-1.61c-.416-.882-1.08-.977-1.348-.977-.267 0-.932.095-1.347.977l-.76 1.61-1.68.255c-.65.1-1.125.458-1.3.985-.178.533-.01 1.114.461 1.594l1.242 1.266-.295 1.796c-.114.693.106 1.127.31 1.368.43.506 1.173.608 1.876.221l1.493-.82 1.493.82c.29.16.579.24.86.24.402 0 .762-.163 1.014-.46.205-.241.425-.674.312-1.368zm-2.298-2.432l.327 1.999-1.708-.94-1.707.938.327-1.997-1.433-1.461 1.976-.3.837-1.777.838 1.776 1.975.302-1.432 1.46zM50.56 43.25l-2.05-.297-.915-1.85c-.317-.642-.836-1.01-1.424-1.01-.587 0-1.106.368-1.423 1.01l-.917 1.85-2.05.297c-.71.102-1.222.482-1.403 1.04-.18.56.01 1.166.525 1.666l1.48 1.438-.348 2.031c-.125.724.103 1.178.316 1.43.447.53 1.228.641 1.987.243l1.833-.96 1.835.96c.31.163.616.245.911.245.429 0 .81-.173 1.075-.488.213-.253.44-.707.316-1.43l-.35-2.03 1.482-1.439c.515-.5.706-1.106.525-1.665-.182-.559-.694-.939-1.404-1.041zm-2.616 3.488l.417 2.43-2.19-1.147-2.19 1.148.418-2.43-1.768-1.718 2.444-.354 1.096-2.214 1.097 2.214 2.443.354-1.767 1.717zm11.987-13.13c-.176-.527-.65-.886-1.3-.984l-1.68-.256-.76-1.61c-.415-.882-1.081-.977-1.348-.977-.267 0-.932.095-1.348.977l-.76 1.61-1.68.255c-.65.099-1.123.458-1.3.984-.177.533-.01 1.114.462 1.595l1.242 1.266-.295 1.798c-.113.693.107 1.126.312 1.367.43.505 1.172.606 1.874.22l1.493-.82 1.493.82c.29.16.579.24.86.24.403 0 .763-.164 1.015-.461.205-.241.425-.675.311-1.367l-.295-1.797 1.241-1.266c.472-.48.64-1.061.463-1.594zm-3.708 2.225l.328 1.999-1.708-.94-1.708.938.328-1.997-1.434-1.461 1.976-.3.838-1.777.837 1.776 1.976.302-1.433 1.46zM30 34.937a7.968 7.968 0 007.968-7.97A7.967 7.967 0 0030 19a7.968 7.968 0 100 15.937zm0-14.062a6.1 6.1 0 016.094 6.093A6.101 6.101 0 0130 33.062a6.101 6.101 0 01-6.094-6.094A6.1 6.1 0 0130 20.875zm5.238 33.88l2.464-2.514c.64-.652.877-1.415.652-2.093-.223-.668-.853-1.127-1.73-1.26l-3.371-.512-1.516-3.215c-.561-1.19-1.402-1.318-1.737-1.318-.336 0-1.177.129-1.736 1.319l-1.516 3.213-3.373.513c-.876.133-1.507.593-1.73 1.261-.225.678.013 1.441.652 2.092l2.465 2.514-.582 3.559c-.158.957.124 1.53.388 1.841.54.637 1.484.745 2.425.227L30 58.729l3.006 1.653c.405.223.801.336 1.178.336.497 0 .94-.2 1.248-.563.264-.311.546-.883.389-1.84l-.583-3.56zM33.97 58.62c.01.061.015.115.018.16a1.315 1.315 0 01-.08-.04L30 56.59l-3.91 2.15a1.647 1.647 0 01-.079.04c.003-.046.009-.1.019-.16l.736-4.498-3.13-3.194c-.058-.058-.1-.11-.13-.153a1.21 1.21 0 01.151-.032l4.36-.663 1.943-4.118a1.46 1.46 0 01.04-.081c.014.024.028.051.042.081l1.94 4.118 4.36.663c.062.009.112.02.152.032a1.23 1.23 0 01-.131.154l-3.13 3.193.738 4.498zM17.233 40.878c.504-.907 1.09-1.71 1.768-2.405 1.483-1.524 3.446-2.567 5.858-3.127a9.891 9.891 0 01-1.83-1.437c-3.223 1.047-5.43 2.923-6.93 5.233.33.31.614.686.834 1.129l.3.607zM15.574 53.61c-.307 0-.55-.241-.556-.45l-.004-.3c-.074-.033-.148-.062-.222-.1l-.964-.506-.696.365c.003.198.007.395.012.59.033 1.259 1.143 2.277 2.43 2.277h7.17l.015-.096-1.744-1.78h-5.441zm19.462-18.2c2.352.587 4.284 1.64 5.77 3.155.71.723 1.328 1.565 1.859 2.519l.402-.814c.188-.378.425-.705.694-.987-1.515-2.309-3.716-4.198-6.885-5.284a9.883 9.883 0 01-1.84 1.412zm10.172 17.35c-.07.036-.144.059-.215.091-.002.108 0 .212-.002.321-.004.199-.249.439-.546.439h-5.46l-1.743 1.778.015.097h7.188c1.284 0 2.396-1.018 2.42-2.277.004-.194.006-.39.008-.588l-.701-.367-.964.505z" fill="#C29F5B"/></svg>
